X:1
T:Bonnie Black Bess
M:4/4
L:1/8
K:A
 C| B,2 D4- DB,| A,2 A,4- A,A| A6 BA| E6 z A| B A- A4D-F| F2 E4- EC|\
 B,2 C4- CD| E6 C3/2 C/2| B,2 D4- DB,| A, A,- A,4 AA| A6 BA| E6 z A|\
 B A- A4D-F| F2 E4- EC| B,2 D4- DB,| A,6 z||
